!!!!SEGMENT: pl-wn--mus-iii-105-719-2--001_zelenski-wladyslaw--25-preludyi-op-38-17-allegretto.krn
!!!cenid: 18xx:3750
!!!COM: Żeleński, Władysław
!!!COM-rismid: pe41024455
!!!CDT:
!!!CNT:
!!!GTL: 25 preludyi op. 38
!!!OTL: 17. Allegretto
!!!PDT: 1881
!!!AGN:
!!!SMS-siglum: PL-Wn
!!!SMS-shelfmark: Mus.III.105.719/2
!!!SMS-shelfwork: 001 G
!!!SMS-variant:
!!!SMS-altvar:
!!!NIFC-rismid:
!!!URL-scan: https://polona.pl/item/25-preludyi-2-3-i-4-glosowych-na-organ-lub-fisharmonike-do-uzytku-organistow-i,ODE1NjEwNDA/2/#info:metadata
!!!ONB-nifc:
!!!OMD: Allegretto.
!!!AIN: 1 organ
!!!key: G
**kern	**fing	**kern	**fing	**dynam
*part1	*part1	*part1	*part1	*part1
*staff2	*staff2	*staff1	*staff1	*
*I"[organ]	*	*I"[organ]	*	*
*Iorgan	*	*Iorgan	*	*
*ICklav	*	*ICklav	*	*
*clefF4	*	*clefG2	*	*
*k[f#]	*	*k[f#]	*	*
*G:	*	*G:	*	*
*M4/4	*	*M4/4	*	*
*met(c)	*	*met(c)	*	*
=1	=1	=1	=1	=1
!	!	!LO:TX:a:t=1) Cały ten ustęp nadaje się więcej do harmonjum aniżeli do organów, a\n to z powodu stylu przeważnie homofonicznego. Urządzenie głosów i kla-\nwiatur zostawiamy zupełnie smakowi organisty, z wyłączeniem wszakże\n wszystkich głosów czerostopowych, które dopiero przy 2) mogą być użyte.\ 1) Das ganze Stück eignet sich mehr für das Harmonium als für die\n Orgel in Folge des darin vorwiegenden homophonischen Styles.\n Die Disposition der Stimmen und Cleviere überlassen wir ganz\n dem Geschmacke des Organisten, jedoch mit Ausschlessung aller\n grellen 4 fusstimmen die erst bei 2) angebracht werden können	!	!LO:DY:b=2
[<1G [>1B [>1d	5 3 1	1r	.	pp
=2	=2	=2	=2	=2
1G_ 1B] 1d]	.	2r	.	.
!	!	!LO:TX:b:i:t=molto legato	!	!
!	!	!LO:TX:a:i:t=dolce	!	!
.	.	[2dd\	4	.
=3	=3	=3	=3	=3
1G] 1c 1e	2 1	8dd\L]	.	.
.	.	8cc\	.	.
.	.	8b\	.	.
.	.	8cc\J	.	.
.	.	4ee\	.	.
*	*	*	*below	*
.	.	4g/	1	.
=4	=4	=4	=4	=4
1G 1A [1c	4 2	4f#/	3	.
.	.	8e/L	.	.
.	.	8f#/J	.	.
.	.	4d/	.	.
.	.	8e/L	.	.
.	.	8f#/J	.	.
=5	=5	=5	=5	=5
*^	*	*	*	*
!	!	!	!	!	!LO:HP:a
2c/]	[<1G [>1d	1	[2g/	.	<
4B/	.	3	8g/L]	.	.
.	.	.	8a/	.	.
4A/	.	4	8b/	.	.
.	.	.	8cc/J	.	[[
=6	=6	=6	=6	=6	=6
*	*	*	*	*above	*
!	!	!	!	!	!LO:HP:t=crescendo poco a poco
[>1B 1d_>	2G\]	.	2.dd\	5-1	<
.	2F#\	4	.	.	.
.	.	.	8ee\L	.	.
.	.	.	8ff#\J	.	.
=7	=7	=7	=7	=7	=7
2B/] 2d]	1E	.	2.gg\	.	.
*	*	*below	*	*	*
2A/ 2c#X	.	1_ 3_2	.	.	.
.	.	.	8ff#\L	3	.
.	.	.	8ee\J	.	.
=8	=8	=8	=8	=8	=8
[1A [1cn	4D\	.	4ff#\	.	.
.	4F#\	3	4aa\	.	.
.	4E\	5	4cc\	1	.
.	4G\	4	4ee\	5	.
=9	=9	=9	=9	=9	=9
1A] 1c]	4F#\	3	4a/	1	.
.	4E\	.	4cc\	5	.
.	2D\	.	4f#/	2	.
.	.	.	8e/L	.	.
.	.	.	8f#/J	.	.
=10	=10	=10	=10	=10	=10
*	*	*above	*	*	*
!	!LO:N:vis=1	!	!	!	!
(2G/ 2B	2E\	4 2 1	8g/L	.	<
.	.	.	8a/J	.	.
!	!	!	!	!	!LO:DY:a
.	.	.	[>4b/	.	[ sfz
!	!LO:N:vis=1	!	!	!	!
2G/) 2A	2C#X\	2 1	8b/L]	.	.
.	.	.	8a/	.	.
.	.	.	8g/	.	.
.	.	.	8e/J	.	.
=11	=11	=11	=11	=11	=11
[<1D [>1A	4G\	.	[2d/	.	.
.	4E\	.	.	.	.
.	4F#\	.	8d/L]	.	.
*	*	*	*	*below	*
.	.	.	8e/	4	.
.	4G\	.	8B/	.	.
.	.	.	8c#X/J	.	.
=12	=12	=12	=12	=12	=12
1D_< 1A_>	4G\	.	[2d/	.	.
.	4E\	.	.	.	.
.	4F#\	.	8d/L]	.	.
.	.	.	8e/	.	.
.	[<4G\	.	8B/	.	.
.	.	.	8c#X/J	.	.
!!LO:LB:g=original
=13	=13	=13	=13	=13	=13
!	!	!	!	!	!LO:HP:t=dimin.
1D_< 1A_>	4G\]	.	8d/L	.	>
.	.	.	8e/	.	.
.	4E\	.	8B/	.	.
.	.	.	8c#X/J	.	.
.	4F#\	.	8d/L	.	.
.	.	.	8e/	.	.
.	4G\	.	8B/	.	.
.	.	.	8c#X/J	.	.
=14	=14	=14	=14	=14	=14
4F#/ 4A]	4D\]	.	8d/L	.	.
.	.	.	8e/	5	.
4r	4r	.	8A/	.	.
.	.	.	8B/J	.	.
2r	2r	.	4cn/	.	.
.	.	.	8B/L	.	.
.	.	.	8A/J	.	.
*v	*v	*	*	*	*
=15	=15	=15	=15	=15
!	!	!LO:TX:b:i:t=dolce	!	!
[<1GG [>1D [>1G	.	[2B/	.	.
.	.	8B/L]	.	.
.	.	(>8d/	1	.
.	.	N[8g/	2	.
.	.	[8b/J	3	.
=16	=16	=16	=16	=16
*	*	*	*above	*
4GG/] 4D] 4G]	.	(1gN]) 1b] 1dd	2_1 3- 3-4	.
4r	.	.	.	.
[2d\	2	.	.	.
=17	=17	=17	=17	=17
*	*	*^	*	*
*	*	*	*^	*	*
*	*	*	*	*	*^	*
8d\L]	.	2.ee/)	1g	2a/	5	2	.
8c\	.	.	.	.	.	.	.
8B\	.	.	.	.	.	.	.
8c\J	.	.	.	.	.	.	.
4e\	.	.	.	[2cc/	.	3	.
[4G\	5	4ee-X/	.	.	.	.	.
*	*	*	*	*	*v	*v	*
*	*	*	*v	*v	*	*
=18	=18	=18	=18	=18	=18
*	*	*	*	*above	*
8G\L]	.	1cc] 1dd	4a\	3-45	.
8F#\	3	.	.	.	.
8E\	4	.	4g\	.	.
8F#\J	3	.	.	.	.
4D\	5	.	4f#\	.	.
8E\L	.	.	8g\L	.	.
8F#\J	.	.	8a\J	.	.
=19	=19	=19	=19	=19	=19
[2G\	2	1g [1dd	2cc\	.	<
8G\L]	.	.	4b\	.	.
8A\	1	.	.	.	.
8B\	3	.	4a\	.	.
8c\J	2	.	.	.	.
=20	=20	=20	=20	=20	=20
2.d\	1	(2dd/]	[2g\ [2b	3_2 5-3	.
.	.	4gg/)	4g\] 4b]	5	.
8e\L	3	4r	4r	.	.
8f#\J	2	.	.	.	[
*	*	*v	*v	*	*
=21	=21	=21	=21	=21
([1g	.	4r	.	mf
.	.	(4dd#X\ 4bb	2 5	.
.	.	4ee\ 4gg	1 3	.
.	.	4cc\ 4ee	2 4	.
=22	=22	=22	=22	=22
*	*	*^	*	*
*	*	*	*	*^	*
8g\L]	.	[1dd)	2.b\	3-4	1	.
8f#\	.	.	.	.	.	.
8e\	.	.	.	.	.	.
8f#\J	.	.	.	.	.	.
4d\	1	.	.	.	.	.
4c\	.	.	4a\	.	2	.
*	*	*	*	*v	*v	*
*	*	*v	*v	*	*
=23	=23	=23	=23	=23
8B\)	.	8g\ 8dd]	.	.
8r	.	8r	.	.
([2.c\	1	(4g#X\ 4ee	.	p
.	.	4a\ 4cc	.	.
.	.	4f#/ 4a	.	.
=24	=24	=24	=24	=24
*	*	*^	*	*
*	*	*	*	*above	*
8c\L]	.	2f#/	1d#X	1 2	<
8B\	.	.	.	.	.
8A\	.	.	.	.	.
8B\J	.	.	.	.	.
4G\	1	4b/	.	.	.
4F#\	.	4a/	.	.	[
!!LO:LB:g=original
=25	=25	=25	=25	=25	=25
*^	*	*	*	*	*
*	*	*^	*	*	*	*
8E\)	8ryy	.	.	8e/) 8g	8ryy	.	.
8r	8ryy	.	.	8r	8ryy	.	.
4r	4ryy	.	.	([4b/	4r	.	.
[2G/	2AA\	1	5	8b/L]	2c#X\	.	.
.	.	.	.	8a/	.	.	.
.	.	.	.	8g/	.	.	.
.	.	.	.	8e/J	.	.	.
=26	=26	=26	=26	=26	=26	=26	=26
8G/]	8BB\	.	.	4f#/)	4d\	.	.
8r	8ryy	.	.	.	.	.	.
4r	4ryy	.	.	([4b/	4r	.	.
[2G/	[2C\	1	4	8b/L]	4e\	.	.
.	.	.	.	8a/	.	.	.
.	.	.	.	8g/	8ryy	.	.
*	*	*	*	*	*	*below	*
.	.	.	.	8e/J	8ryy	1	.
*	*	*v	*v	*	*	*	*
=27	=27	=27	=27	=27	=27	=27
*	*	*	*	*	*^	*
2G/]	4C\]	.	2d/	2ryy	.	.	.
*	*	*below	*	*	*	*	*
.	4BB\	5	.	.	.	.	.
2ryy	4AA\	3	4e/	2c\	3	2	.
.	4DD\	5	4f#/	.	4	.	.
=28	=28	=28	=28	=28	=28	=28	=28
!	!	!	!LO:TX:a:t=2) mogą być użyte.\ 2) angebracht werden können Bei	!	!	!	!
2GG/	[1GG	4_5	4g/)	[2B\	5	1_2	mf
.	.	.	4r	.	.	.	.
[2Fn/	.	.	2r	8B\L]	.	.	.
.	.	.	.	(>8G\	.	.	.
.	.	.	.	8A\	.	.	.
.	.	.	.	8c\J	.	.	.
*	*	*	*	*	*v	*v	*
*	*	*	*v	*v	*	*
=29	=29	=29	=29	=29	=29
4F/]	1GG_	.	8B/L	3	.
.	.	.	8G/	.	.
*	*	*above	*	*	*
4E/	.	2	8A/	.	.
.	.	.	8c/J	.	.
4D/	.	1	8B/L	.	.
.	.	.	8G/	.	.
4C#X/	.	3	8A/	2	.
.	.	.	8e/J	.	.
=30	=30	=30	=30	=30	=30
2D/	1GG_	2	8d/L	4	.
.	.	.	8A/	.	.
.	.	.	8B/	.	.
.	.	.	8e/J	.	.
[2Fn/	.	1	8d/L	.	.
.	.	.	8A/	.	.
.	.	.	8B/	.	.
.	.	.	8e/J	.	.
=31	=31	=31	=31	=31	=31
4F/]	1GG_	.	8d/L	4	.
.	.	.	8B/	1	.
4E/	.	2	8c/	.	.
.	.	.	8g/J	.	.
4D/	.	1	8f#/L	4	.
.	.	.	8d/	1	.
4C#X/	.	3	8e/	.	.
.	.	.	8b/J	.	.
=32	=32	=32	=32	=32	=32
2.Cn/	1GG_	1	8a/L)	4	<
.	.	.	(8e/	.	.
.	.	.	8f#/	.	.
.	.	.	8b/J	.	.
.	.	.	8a/L	.	.
.	.	.	8e/	.	.
4AA/	.	4	8f#/	.	.
.	.	.	8ee/J	.	[
=33	=33	=33	=33	=33	=33
4BB/	1GG_	3	8dd\L	.	>
.	.	.	8g\	.	.
4C/	.	1	8a\	.	.
.	.	.	8cc\J	.	.
4D/	.	2	8b/L	.	.
.	.	.	8a/	.	.
[4E/	.	1	8g/	.	.
*	*	*	*	*above	*
.	.	.	8b/J	5	]
!!LO:LB:g=original
=34	=34	=34	=34	=34	=34
4E/]	1GG_	.	8a/L)	.	.
.	.	.	(8e/	.	<
4D/	.	2	8f#/	.	.
.	.	.	8b/J	.	.
4C/	.	1	8a/L	.	.
.	.	.	8e/	.	.
4AA/	.	4	8f#/	.	.
.	.	.	8ee/J	.	.
=35	=35	=35	=35	=35	=35
4BB/	1GG_	3	8dd\L	4	.
.	.	.	8g\	1	[
4C/	.	2	8a\	2	.
.	.	.	8cc\J	4	.
*	*	*	*	*below	*
4D/	.	1	8b/L	3	.
.	.	.	8e/	.	.
4D#X/	.	2	8f#/	2	.
.	.	.	8a/J	4	.
=36	=36	=36	=36	=36	=36
2E/	1GG_	1-2	8g/L)	3	.
.	.	.	(8B/	.	.
.	.	.	8c/	2	.
.	.	.	8e/J	4	.
[2Fn/	.	.	8d/L	3	.
.	.	.	8A/	.	.
.	.	.	8B/	2	.
.	.	.	8d/J	3	.
=37	=37	=37	=37	=37	=37
4F/]	1GG_	.	8g/L	5	.
.	.	.	8B/	.	.
4E/	.	.	8c/	2	.
.	.	.	8e/J	4	.
4Fn/	.	1	8d/L	3	.
.	.	.	8A/	1	.
4F#X/	.	2	8B/	3	.
.	.	.	8c/J	4	.
=38	=38	=38	=38	=38	=38
2G/	2GG\_	.	[2B/)	3	.
4D/	4GG\]	.	8B/L]	.	.
!	!	!	!LO:TX:a:t=Przy 3) trzeba je znowu zamknąć, a nawet później zmiejszyć liczbę głosów ośmiostopowych dla otrzymania diminuenda.\ Bei 3) müssen dieselben gestopft, und sogar das ganze Manual\n allmählig geschwächt weden, um das diminuendo erhalten zu können.	!	!LO:HP:t=diminuendo
.	.	.	(>8G/	.	>
4rE	4rGG	.	8A/	.	.
.	.	.	8c/J	.	.
=39	=39	=39	=39	=39	=39
1rA	1rBB	.	8B/L	.	.
.	.	.	8G/	.	.
.	.	.	8A/	.	.
.	.	.	8c/J	.	.
.	.	.	8B/L	.	.
.	.	.	8G/	.	.
.	.	.	8B/	2	.
.	.	.	8e/J	5	.
=40	=40	=40	=40	=40	=40
*	*	*	*^	*	*
2rF	2rAA	.	[2d/)	2ryy	.	.
4GG/ 4D	2ryy	.	8d/L]	4G\ 4B	.	pp
.	.	.	(8G/	.	.	.
4r	.	.	8B/	4r	.	.
.	.	.	8e/J	.	.	.
=41	=41	=41	=41	=41	=41	=41
1rA	1rBB	.	8d/L	1r	4	>
.	.	.	8B/	.	1	.
.	.	.	8d/	.	.	.
.	.	.	8a/J	.	.	.
.	.	.	8g/L	.	.	.
.	.	.	8d/	.	.	.
.	.	.	8g/	.	.	.
.	.	.	8cc/J	.	.	.
*v	*v	*	*	*	*	*
=42	=42	=42	=42	=42	=42
*	*	*	*	*above	*
2r	.	[1b)	2ryy	4-5	]
4GG/ 4D 4G	.	.	4B\ 4d 4g	.	pp >
4r	.	.	4r	.	.
=43	=43	=43	=43	=43	=43
1GG 1D 1G	.	1B;> 1d 1g 1b]	1ryy	.	]
*	*	*v	*v	*	*
==	==	==	==	==
*-	*-	*-	*-	*-
!!!system-decoration: {(s1,s2)}
!!!RDF**kern: < = below
!!!RDF**kern: > = above
!!!RDF**kern: N = linked
!!!ENC: Berenika Jozajtis
!!!END: 2022-03-12
!!!ENC: Marta Chmielewska
!!!END: 2022-03-15
